X: 12051
T: Eroticon VI
R: reel
M: 4/4
K: Adorian
|:a3g edcA|d3c dege|aa z g edcA|dege a z ab|
a3g edcA|dedc dege|abag edcA|1 dcAG A z a2:|2 dcAG A z3||
~E3A AGED|EAAE AGED|E~A3 BAA/A/A|cAA/A/A dAe2|
z ~A3 AGED|~E3A AGED|E/F/G FA ~G3 d|e3g dcAG|
~E3A zGED|EAAE AGED|E~A3 BAA/A/A|cAA/A/A dAB/c/d|
e3 d cA d2-|dddlA BAGA|B2BB c3A|d3c dege||

